X:1
T:Title
%%score { ( 1 4 ) | ( 2 3 ) }
L:1/8
Q:1/4=104
M:4/4
K:Ab
V:1 treble nm="Grand Piano"
V:4 treble 
V:2 bass 
V:3 bass 
V:1
 [CE]2 [CE]2 [CE]2 .[F,DF]2 | [CA]2 [CA]2 [CA][DB] [Ec]2 | z4 B2[K:bass][K:treble] .A2 | %3
w: John~R.~Sweney * * *|||
 [Ec]2 [CA]2 [DF]2 [CE]2 | [CE]2 [CE]2 [CE]2 .[F,DF]2 | [CA]2 [CA]2 [CA][DB] [Ec]2 | %6
w: |||
 [DB]2 [DB]2 [Fd]4 | G2 FG [CA]4 | c2 e2 e2 [Ec]B | [CA]2 [CA][DB] [Ec]2 [EA]2 | B2 B2 d2 cB | %11
w: |||||
 c2 e2 A2 F2 | [CE]2 [CE]2 [CE]2 .[F,DF]2 | [CA]2 [CA]2 [CA][DB] [Ec]2 | [DB]2 [DB]2 [Fd]4 | %15
w: ||||
 G2 FG [CA]4 |] %16
w: |
V:2
 [A,,A,]2 [A,,A,]2 [A,,A,]2 z G | [A,,E,]2 [A,,E,]2 [A,,E,]2 [A,,A,]2 | %2
 [E,G,E]2 [E,G,E]2 .[E,G,E]2 [C,A,][B,,G,] | [A,,A,]2 [A,,A,]2 [A,,A,]2 [A,,A,]2 | %4
 [A,,A,]2 [A,,A,]2 [A,,A,]2 z G | [A,,E,]2 [A,,E,]2 [A,,E,]2 [A,,A,]2 | [D,F,]2 [D,F,]2 [B,,B,]4 | %7
 [E,B,E]2 [E,B,D]2 [A,,A,]4 | [A,E]2 [A,CE]2 [A,CE]2 A,[G,D] | [A,,A,]2 [A,,E,]2 [A,,A,]2 [C,A,]2 | %10
 [E,G,E]2 [E,G,E]2 [E,B,E]2 [E,E]-[E,G,E] | [A,E]2 [A,CE]2 [A,CE]2 [A,D]2 | %12
 [A,,A,]2 [A,,A,]2 [A,,A,]2 z G | [A,,E,]2 [A,,E,]2 [A,,E,]2 [A,,A,]2 | [D,F,]2 [D,F,]2 [B,,B,]4 | %15
 [E,B,E]2 [E,B,D]2 [A,,A,]4 |] %16
V:3
 z4 z2 A,,2 | x8 | x8 | x8 | z4 z2 A,,2 | x8 | x8 | x8 | z4 z2 A,,2 | x8 | z4 z2 .A,2 | x8 | %12
 z4 z2 A,,2 | x8 | x8 | x8 |] %16
V:4
 x8 | x8 | B2 B2 z[K:bass] D,[K:treble]E-[EB] | x8 | x8 | x8 | x8 | x8 | x8 | x8 | x8 | x8 | x8 | %13
 x8 | x8 | x8 |] %16

